X:11
T:Haste to the Wedding
C:Traditional
N:courtesy of Paul Setford's "Sing & Play" vol. 1
M:6/8
L:1/8
Z:abc2nwc
K:D
A2A A2f|ede fdB|A2A A2F|GFG EFG|
ABA A2f|ede fdB|A2A d2e|fdd d3:|
|:fga agf|gab bag|fga agf|gfg efg|
a3f3|ede fdB|ABA d2e|fdd d3:|
